X: 46
T:Mountain Belle Schottische. GHW.046
M:2/4
L:1/8
Q:120
S:George H.Watson,MS,Swanton Abbott,Norfolk,1850-1880
R:Schottische
O:England
A:Norfolk
N:Sign at start, DC sign at end of B part
Z:vmp.Taz Tarry
K:F
(3c/d/e/)|fAc d/c/|BEG (g/a/)|b3/4a/4g3/4f/4 e3/4d/4c3/4B/4|A3/4
B/4c3/4d/4 c (3c/d/e/)|!
fAc (d/c/)|BEG (g/a/)|b3/4a/4g3/4f/4 e3/4c/4d3/4e/4|fff (3c/d/e/
)|!
fAc (d/c/)|BEG (g/a/)|b3/4a/4g3/4f/4 e3/4d/4c3/4B/4|A3/4B/4c3/4d/4 c
 (3c/d/e/)|!
fAc d/c/|BEG (g/a/)|b3/4a/4g3/4f/4 e3/4c/4d3/4e/4|fff ||!
K:C
eg e(d/c/)|ba f2|ba fe/f/|ag e2|eg ed/c/|ba f2|ba de/d/|cec z|!
eg e(d/c/|ba f2|ba f(e/f/)|ba e2|eg e(d/c/)|ba f2|ba d(e/d/)|"DC"ce
c||!
K:Bb
(F/E/)|DF B>c|BA c2|gc gc|gf d2|DF B>c|BA c2|gc gc|Bbb (F/E/)|!
DF B>c|BA c2|gc gc|(gf) d2|DF B>c|BA c2|gc gc|Bbb||
